X:1
T:There Is No Greater Love
T:There Is No Greater Love
C:Isham Jones
Z:All Rights Reserved
L:1/4
M:2/2
K:Bb
V:1 treble nm="Voice"
%%MIDI program 52
V:1
"F7" z A B c |"Bb" B A G3/2 D/ |"Eb7" F =E _E B, |"D7""Ab9" D4- |"G7" D/ z/ D A _A |"C7" G4- | %6
w: Ther is no|great- er love than|what I feel for|you,|* no great- er|love,|
 G/ z/ G d _d |"Cm7" c4- |"F7" c/ z/ A B c |"Bb" B A G3/2 D/ |"Eb7" F =E _E B, |"D7""Ab9" D4- | %12
w: * no heart so|true.|* There is no|great- er thrill than|what you bring to|me,|
"G7" D/ z/ D A _A |"C7" G G d c |"Cm7/F" B2"F7" c2 |"Bb" B4- | B3 z |"D7b9/A" D ^F"D7b9" A c | %18
w: * no sweet- er|song than what you|sing to|me.||You're the sweet- est|
"Gm" B4 |"D7b9/A" ^F A"D7b9" c e |"Gm" d4 |"D7b9" D ^F A c |"Gm7" B A G D |"C7""C7b5/Gb" C4- | %24
w: thing|I have ev- er|known,|and to think that|you are mine a-|lone!|
"F7" C/ z/ A B c |"Bb" B A G3/2 D/ |"Eb7" F =E _E B, |"D7""Ab9" D4- |"G7" D/ z/ D A _A | %29
w: * There is no|great er love in|all the world it's|ture,|* No great- er|
"C7" G G d c |"Cm7/F" B2"F7" c2 |"Bb""Bb/D""Dbdim7""Cm7" B4- |"Bb6" B z2 z |] %33
w: love than what I|feel for|you.||

